X:895
T:Sailor's Delight
A:Wyresdale, Lancashire
B:E and J Winder, 1835-41
L:1/8
M:3/2
O:England
Z:Richard Robinson 
%%TUNEURL: http://www.leeds.ac.uk/music/Info/RRTuneBk/gettune/00000606.html
%%ID:00000606
K:G
F2f2 (efge) f2cB | (ABcA) F2B2 (ABc)~A |\
G2d2 f2dc   d4   |  D2G2  G2B2   ABcA ::
a2gf (efge) f2cB | (ABcA) F2B2 (ABcA) |\
a2gf (efge) d4   |  D2G2  G2B2 (ABc)~A ::
B2dB (ABc)A G4   | f2gf   f2ed (ABc)A |\
B2dB (ABcA) G4   | D2G2   G2B2 ABcA :|
